src/assets/assets/images/button-stroke-gray.svg

<svg width="224" height="49" viewBox="0 0 224 49" fill="none" xmlns="http://www.w3.org/2000/svg">
<path d="M13.4499 46.6665C13.7041 46.7146 14.0643 46.6665 14.3927 46.5917C16.1248 46.1856 17.7139 46.5222 19.2606 47.3663C20.7967 48.2051 22.407 48.5951 24.1338 47.8365C24.8436 47.5213 25.6434 47.4732 26.3797 47.7189C27.7251 48.1677 29.2241 47.986 30.4742 48.8195C30.8344 49.0599 31.2687 49.0438 31.6925 48.8675C33.6947 48.0341 35.7446 48.0929 37.8793 48.2211C41.2534 48.4188 44.6541 48.2585 48.0441 48.2211C48.542 48.2211 49.0823 48.1623 49.5325 47.9647C52.234 46.8 54.9831 47.0191 57.7481 47.6174C59.1306 47.9166 60.5078 48.563 61.9115 47.7082C64.5546 47.9647 67.113 47.0565 69.7456 47.0992C70.2541 47.1045 70.805 46.9443 71.2129 47.3022C72.0074 48.0021 72.8655 47.8845 73.8242 47.8151C76.0913 47.6548 78.3637 47.4144 80.652 47.6976C81.4995 47.8044 82.3258 47.8685 83.1098 48.2425C84.4711 48.8996 85.8589 48.8889 87.3208 48.531C88.6027 48.2158 89.8369 47.8097 91.2829 48.0929C92.48 48.328 93.7513 48.2104 95.0067 48.5417C96.6381 48.969 98.3596 48.7981 100.007 48.4936C102.316 48.0608 104.658 47.8845 106.972 47.5266C107.974 47.3717 108.826 47.4892 109.61 48.0662C110.659 48.8462 111.782 48.8996 112.995 48.6058C114.388 48.2639 115.797 47.986 117.195 47.6548C117.778 47.5159 118.334 47.4518 118.943 47.4999C120.962 47.6495 122.996 47.5854 124.977 48.1623C125.718 48.376 126.486 48.2959 127.233 48.0769C128.044 47.8365 128.865 47.6228 129.675 47.377C130.507 47.1259 131.291 47.0458 132.143 47.4251C132.657 47.6548 133.309 47.7296 133.876 47.6602C134.924 47.5319 135.883 47.4999 136.731 48.2799C136.995 48.5256 137.414 48.4989 137.663 48.2318C138.267 47.5854 138.908 47.4304 139.697 47.8632C140.089 48.0769 140.507 47.9754 140.931 47.8632C142.319 47.4785 143.733 47.19 145.1 46.7413C146.975 46.1322 148.744 46.1963 150.434 47.2648C150.958 47.596 151.53 47.6762 152.139 47.6548C153.416 47.6174 154.698 47.5159 155.884 47.0565C157.426 46.4528 158.967 46.2711 160.572 46.5917C162.013 46.8802 163.416 46.3887 164.857 46.3833C166.017 46.3833 167.177 45.8544 168.332 46.4474C169.624 45.8811 170.965 46.5115 172.278 46.2658C173.2 46.0948 174.137 46.1215 175.054 46.3673C175.636 46.5276 176.214 46.581 176.807 46.4154C177.432 46.2391 177.999 46.4314 178.465 46.8374C179.45 47.6976 180.61 47.8258 181.813 47.6655C184.021 47.377 186.188 47.8899 188.376 47.938C188.535 47.938 188.757 47.9486 188.847 48.0502C189.864 49.1988 190.992 48.6966 192.126 48.3066C194.202 47.5907 196.459 47.5213 198.45 46.5009C200.574 46.6772 202.64 46.1322 204.743 46.0147C205.225 45.988 205.511 46.2925 205.85 46.5382C206.613 47.0992 207.392 47.1045 208.218 46.6237C209.69 45.7636 211.179 45.0584 213.001 45.2668C213.859 45.3629 214.707 44.6096 215.681 44.8607C216.02 44.9462 216.317 44.6524 216.513 44.3639C217.143 43.4236 218.07 42.8253 218.939 42.1361C220.062 41.2493 221.211 40.293 221.179 38.6154C221.169 38.0598 221.476 37.6111 221.9 37.3226C222.832 36.6975 223.129 35.7359 223.388 34.7368C223.537 34.1599 223.685 33.5775 223.86 33.0112C224.045 32.4129 224.087 31.8092 223.733 31.2856C222.223 29.0578 222.424 26.5629 222.747 24.1215C223.012 22.102 222.557 20.2375 222.085 18.341C221.963 17.8494 221.598 17.39 221.587 16.9092C221.556 15.2691 221.116 13.7304 220.724 12.1544C220.528 11.3637 220.438 10.6692 219.696 10.2579C218.971 9.85719 218.822 9.01843 218.293 8.46816C217.175 7.30885 215.988 6.20831 214.934 4.99024C214.256 4.21025 213.515 3.82559 212.508 3.91642C211.92 3.96984 211.301 3.8897 210.739 4.03929C209.955 4.2423 209.245 4.21025 208.52 3.87902C208.054 3.67066 207.577 3.5371 207.047 3.72943C206.83 3.80957 206.417 3.84696 206.327 3.72943C205.511 2.64492 204.107 3.02423 203.128 2.36177C201.761 1.43753 200.278 1.38411 198.736 1.81684C197.534 2.15342 196.379 1.90767 195.256 1.46424C194.17 1.03685 192.989 0.951372 191.691 1.23452C191.109 1.36274 190.526 1.38945 189.928 1.26657C187.83 0.833839 185.717 0.940687 183.603 1.15973C183.185 1.20247 182.756 1.17575 182.342 1.23452C181.235 1.38945 180.155 0.753702 179.117 0.951372C178.094 1.14904 177.13 1.21315 176.113 1.06356C175.621 0.994111 175.075 0.999454 174.598 1.13836C172.193 1.85424 169.746 1.58178 167.299 1.59246C165.043 1.5978 162.728 1.42151 160.614 2.5167C159.709 2.98683 158.803 2.98149 157.924 2.57547C157.097 2.19081 156.324 2.07328 155.498 2.52739C155.106 2.74108 154.692 2.68766 154.269 2.57547C153.056 2.24424 151.837 1.92369 150.608 1.64589C149.396 1.37342 148.235 1.60849 147.171 2.21753C145.64 3.09903 144.12 3.083 142.568 2.32437C141.62 1.85958 140.682 1.74205 139.628 2.12136C138.124 2.66095 136.577 2.97615 135.126 1.87027C134.771 1.60315 134.315 1.74739 133.891 1.80616C132.048 2.06794 130.221 2.13205 128.346 1.93438C127.339 1.82753 126.539 1.74205 125.988 0.812469C125.75 0.406445 125.305 0.315624 124.865 0.41713C124.124 0.588087 123.393 0.780414 122.662 0.994111C121.687 1.27726 120.734 1.6726 119.743 1.86493C118.122 2.17479 116.528 2.18013 115.241 0.844523C114.653 0.230145 113.938 0.128639 113.133 0.379733C112.407 0.609457 111.65 0.743017 110.924 0.972742C108.683 1.68328 106.379 1.1811 104.112 1.37877C103.355 1.44287 102.592 1.43219 101.834 1.46959C99.9805 1.56041 98.1371 1.87027 96.2779 1.41082C95.727 1.27192 95.0967 1.37877 94.514 1.45356C92.9303 1.65657 91.3306 1.40548 89.7521 1.6352C89.5508 1.66726 89.1853 1.50164 89.1165 1.33603C88.6715 0.224803 87.9512 0.465212 87.0454 0.684251C84.4075 1.32534 81.722 1.69397 78.9888 1.44822C76.9759 1.26657 74.926 1.71 72.9291 1.11164C70.8686 1.71534 68.7074 1.09027 66.6416 1.62986C66.0484 1.78479 65.4763 1.71534 64.883 1.64054C63.7071 1.4963 62.5259 1.39479 61.3447 1.29863C60.7567 1.25055 60.1317 1.11699 59.5755 1.2452C56.8847 1.8863 54.1726 1.27192 51.4924 1.45356C49.7391 1.57644 48.203 1.38945 46.7781 0.310281C46.2114 -0.122455 45.4804 -0.0369759 44.813 0.171378C44.331 0.320966 43.8754 0.620142 43.3881 0.705621C41.8997 0.972742 40.5807 1.86493 38.9705 1.74205C37.4608 1.62452 36.036 2.56478 34.4893 2.31903C33.8272 2.21218 33.3504 2.56478 32.826 2.82122C31.613 3.42491 30.4159 3.62258 29.2188 2.78916C28.7156 2.44191 28.3131 2.44725 27.9529 3.02423C27.7834 3.29669 27.5185 3.62792 27.2378 3.69738C25.5851 4.12477 23.8954 4.08203 22.2057 4.01792C22.0521 4.01258 21.8349 3.9271 21.7608 3.80957C21.0669 2.67163 20.0446 2.97615 19.0381 3.13108C16.4585 3.53176 13.8842 4.02326 11.2887 4.28504C9.72614 4.44532 8.42839 5.34818 6.90818 5.5512C6.60625 5.59394 6.29373 5.84503 6.05537 6.06941C5.32439 6.76927 4.68347 7.53858 3.70353 7.96597C3.08379 8.23309 2.7236 8.88487 2.61237 9.61144C2.17272 12.5605 1.73308 15.5041 1.28814 18.4531C1.82313 19.714 1.21928 20.697 0.594239 21.728C0.345283 22.1394 0.292314 22.7004 0.239345 23.1972C0.144 24.0467 0.159891 24.9068 0.0380613 25.7509C-0.0678772 26.4775 0.0327644 27.0865 0.525379 27.6474C1.29343 28.5236 1.61655 29.5974 1.5212 30.7354C1.30932 33.257 2.53291 35.5436 2.64415 38.0064C2.66004 38.3483 2.88251 38.6101 3.14736 38.8559C4.82119 40.3891 5.96002 42.4246 7.7345 43.867C8.89982 46.2551 11.2358 46.2337 13.4287 46.6504L13.4499 46.6665Z" fill="#5A5A5A"/>
</svg>

<svg width="224" height="49" viewBox="0 0 224 49" fill="none" xmlns="http://www.w3.org/2000/svg"><path d="M13.45 46.666c.254.049.614 0 .943-.074 1.732-.406 3.32-.07 4.868.774 1.536.84 3.146 1.23 4.873.47a3.108 3.108 0 0 1 2.246-.117c1.345.449 2.844.267 4.094 1.1.36.24.795.225 1.218.048 2.003-.833 4.053-.774 6.187-.646 3.374.198 6.775.038 10.165 0 .498 0 1.038-.059 1.489-.256 2.701-1.165 5.45-.946 8.215-.348 1.383.3 2.76.946 4.163.091 2.644.257 5.202-.651 7.835-.609.508.006 1.059-.155 1.467.203.794.7 1.653.583 2.611.513 2.267-.16 4.54-.4 6.828-.117.847.106 1.674.17 2.458.544 1.361.658 2.749.647 4.21.289 1.283-.315 2.517-.721 3.963-.438 1.197.235 2.468.117 3.724.449 1.631.427 3.353.256 5-.048 2.309-.433 4.651-.61 6.965-.967 1.002-.155 1.854-.038 2.638.54 1.049.78 2.172.833 3.385.539 1.393-.342 2.802-.62 4.2-.951a5.479 5.479 0 0 1 1.748-.155c2.019.15 4.053.085 6.034.662.741.214 1.509.134 2.256-.085.811-.24 1.632-.454 2.442-.7.832-.251 1.616-.331 2.468.048.514.23 1.166.305 1.733.235 1.048-.128 2.007-.16 2.855.62a.662.662 0 0 0 .932-.048c.604-.647 1.245-.802 2.034-.369.392.214.81.112 1.234 0 1.388-.385 2.802-.673 4.169-1.122 1.875-.609 3.644-.545 5.334.524.524.331 1.096.411 1.705.39 1.277-.038 2.559-.14 3.745-.599 1.542-.603 3.083-.785 4.688-.464 1.441.288 2.844-.203 4.285-.209 1.16 0 2.32-.529 3.475.064 1.292-.566 2.633.064 3.946-.181a6.25 6.25 0 0 1 2.776.101c.582.16 1.16.214 1.753.048.625-.176 1.192.016 1.658.422.985.86 2.145.989 3.348.828 2.208-.288 4.375.225 6.563.273.159 0 .381.01.471.112 1.017 1.149 2.145.647 3.279.257 2.076-.716 4.333-.786 6.324-1.806 2.124.176 4.19-.369 6.293-.486.482-.027.768.277 1.107.523.763.561 1.542.567 2.368.086 1.472-.86 2.961-1.566 4.783-1.357.858.096 1.706-.657 2.68-.406.339.085.636-.209.832-.497.63-.94 1.557-1.539 2.426-2.228 1.123-.887 2.272-1.843 2.24-3.52-.01-.556.297-1.005.721-1.293.932-.626 1.229-1.587 1.488-2.586.149-.577.297-1.16.472-1.726.185-.598.227-1.202-.127-1.725-1.51-2.228-1.309-4.723-.986-7.165.265-2.019-.19-3.883-.662-5.78-.122-.492-.487-.951-.498-1.432-.031-1.64-.471-3.179-.863-4.755-.196-.79-.286-1.485-1.028-1.896-.725-.4-.874-1.24-1.403-1.79-1.118-1.16-2.305-2.26-3.359-3.478-.678-.78-1.419-1.164-2.426-1.074-.588.054-1.207-.026-1.769.123-.784.203-1.494.171-2.219-.16-.466-.208-.943-.342-1.473-.15-.217.08-.63.118-.72 0-.816-1.084-2.22-.705-3.199-1.367-1.367-.924-2.85-.978-4.392-.545-1.202.336-2.357.09-3.48-.353-1.086-.427-2.267-.513-3.565-.23a4.17 4.17 0 0 1-1.763.033c-2.098-.433-4.211-.326-6.325-.107-.418.042-.847.016-1.261.075-1.107.154-2.187-.481-3.225-.284-1.023.198-1.987.262-3.004.113-.492-.07-1.038-.065-1.515.074-2.405.716-4.852.444-7.299.454-2.256.006-4.571-.17-6.685.925-.905.47-1.811.464-2.69.058-.827-.384-1.6-.502-2.426-.048-.392.214-.806.16-1.229.048a85.353 85.353 0 0 0-3.661-.93c-1.212-.272-2.373-.037-3.437.573-1.531.881-3.051.865-4.603.106-.948-.464-1.886-.582-2.94-.203-1.504.54-3.051.855-4.502-.25-.355-.268-.811-.124-1.235-.065-1.843.262-3.67.326-5.545.128-1.007-.106-1.807-.192-2.358-1.122-.238-.406-.683-.496-1.123-.395a39.18 39.18 0 0 0-2.203.577c-.975.283-1.928.679-2.919.87-1.621.31-3.215.316-4.502-1.02-.588-.614-1.303-.715-2.108-.464-.726.23-1.483.363-2.209.593-2.241.71-4.545.208-6.812.406-.757.064-1.52.053-2.278.09-1.853.091-3.697.401-5.556-.058-.551-.14-1.181-.032-1.764.043-1.584.203-3.183-.049-4.762.181-.201.032-.567-.133-.635-.299C88.67.225 87.95.466 87.044.684c-2.638.641-5.323 1.01-8.056.764-2.013-.181-4.063.262-6.06-.336-2.06.603-4.222-.022-6.287.518-.594.155-1.166.085-1.759.01a87.097 87.097 0 0 0-3.538-.341c-.588-.048-1.213-.182-1.77-.054-2.69.641-5.402.027-8.083.209-1.753.122-3.289-.065-4.714-1.144-.567-.432-1.298-.347-1.965-.139-.482.15-.938.45-1.425.535-1.488.267-2.807 1.159-4.417 1.036-1.51-.117-2.935.823-4.482.577-.662-.107-1.139.246-1.663.502-1.213.604-2.41.802-3.607-.032-.503-.347-.906-.342-1.266.235-.17.273-.434.604-.715.673-1.653.428-3.343.385-5.032.32-.154-.004-.371-.09-.445-.207-.694-1.138-1.716-.834-2.723-.679-2.58.4-5.154.892-7.75 1.154-1.562.16-2.86 1.063-4.38 1.266-.302.043-.614.294-.853.518-.73.7-1.372 1.47-2.351 1.897-.62.267-.98.919-1.092 1.645-.44 2.95-.879 5.893-1.324 8.842.535 1.261-.069 2.244-.694 3.275-.249.411-.302.972-.355 1.47-.095.849-.08 1.709-.2 2.553-.107.726-.006 1.335.486 1.896.768.877 1.092 1.95.996 3.088-.212 2.522 1.012 4.809 1.123 7.271.016.342.239.604.503.85 1.674 1.533 2.813 3.569 4.588 5.011 1.165 2.388 3.5 2.367 5.694 2.783l.02.017Z" fill="#5A5A5A"/></svg>
